X:842
T:Up Jumped The Devil
C:anon.
S:Nottingham Music Database
Z:Converted from Nottingham Database format by Philip Rowe
F:http://abc.musicaviva.com/tunes/anon/up-jumped-the-devil/up-jumped-the-devil-1.abc
%Posted Oct 16th 1999 at abcusers by Philip Rowe in reply to a request from Rod
%Smith for "old time tunes". See "Done Gone" for more information.
M:4/4
L:1/4
K:A
e|"A"ee/e/ff|aafe|"A"eafe|"E7"g3e|e/g/b/e/ g/b/e/g/|"E7"b/e/g/b/ge|
g/f/e/g/ f/e/f/c/|"A"e3e|e/c/e/c/ f/c/f/c/|a/c/a/c/fe|"A"eaea|"D"f3a|
"D"a3/b/af|"A"e3/f/ee/f/|"E7"g/f/e/d/ c/A/B|"A"A4||"A"EA/A/EA/A/|"D"FA/A/"A"EE|EA/A/EE|
"E7"Be2e|B/B/e/e/ B/e/B/B/|"E7"e/B/B/e/ef|g/f/e/g/ f/e/d/B/|"A"A/B/A/F/"E7"EE|"A"EA/A/EA/A/|
"D"FA/A/"A"EE|EA/A/EA/A/|"D"FF2a|"D"a3/b/af|"A"e3/f/ee/f/|"E7"g/f/e/d/ c/A/B|"A"A4|]
W:
W:
W:  From Musica Viva - http://www.musicaviva.com
W:  the Internet center for free sheet music downloads.

